X:1
T:Oime Filli
T:Oime Filli
T:Bartolomeo Spighi da Prato
C:Bartolomeo Spighi da Prato
%%score 1 { 2 | 3 }
L:1/8
Q:1/4=120
M:6/2
K:C
V:1 treble nm="Soprano" snm="S"
V:2 treble nm="MusicXML Part"
V:3 bass 
V:1
"^Source: Musical Concerto d'arie e canzonette---Fiorenza---Z.Pignoni---1641.\nEditor: André Vierendeels (28/09/08)\nContinuo: André Vierendeels" z8 e4 B8 z4 | %1
w: Oi- me|
w: Oi- me|
w: Oi- me|
w: |
 c4 B4 c4"^ARIETTA" d12 | B12 z4 e4 d4 | c2 B2 c2 A2 B2 c2 d4 d4 c4 | %4
w: fil- li si mo-|re mo- ri|sec'- * * * * * * an- cor|
w: pal- li- do'e'il vi-|so, et os-|cu- * * * * * rat' il ciel|
w: fil- li- de'e mor-|ta Al- ma,|e _ _ _ _ _ _ tu res-|
w: |||
 B4"^-natural" G4 F4 E2 D2 E2 C2 D2 E2 | F4 F4 E4 D12 | E8 F4 E4 E4 ^D4 |[M:2/4] E4 :: B2 BB | %9
w: tu mo- ri sec' _ _ _ _ _|_ an- cor tu|a- ni- ma mi- *|a|par- ti- ti|
w: al suo pal- * * * * * *|* lo- * re,|[al sou pal- lo- *|re,]|par- ti- ti|
w: ti qui tra tan- * * * * *|to duo- lo, qui|tra- tan- to duo- *|lo,||
w: ||||par- ti- ti|
[M:4/4] B3 A B4 | c/B/A/B/ c/A/G/F/ E2 FE | D4 C2 GG | ^G2 GG A>B A>B | cAdc B4 |[M:3/2] A4 e6 f2 | %15
w: dal mio cor|fug- * * * * * * * * g'e va|vi- a al- tra|fiam- ma m'ac- cen- * * *|* d'al- tro de- si|o, fug- gi-|
w: dal mio sen|fug- * * * * * * * * gi dal|co- re Al- ma|ne piu sof- frir _ _ _|_ do- lor si ri-|o,- * *|
w: ||||||
w: dal mio cor|se- * * * * * * * * gu'il suo|vo- lo Ahi, che|te- co con- vi- * * *|en che mo- r'an- chi-|o,- * *|
 g4 f4 e4 | d4 B4 e4 | c4 A4 e4 | e8 ^d4 | e4 B6 c2 | d4 c4 B4 | A4 ^F4 B2 A2 | ^G4 G4 c2 B2 | %23
w: ti- ve spe|ran- ze a|Di- o, a|Di- *|o, fug- gi-|ti- ve spe-|ran- ze a _|Di- o, a- *|
w: ||||||||
w: ||||||||
w: ||||||||
 A2 B2 c2 A2 d2 c2 | B12 | A12 |] %26
w: |Di-|o.|
w: |||
w: |||
w: |||
V:2
 z4 z4 [EAc]4 [EB]8 z4 | [EAc]12 [DA]12 | [EB]12 [EGc]8 [EG]4 | [EAc]12 [DA]12 | %4
 [EB]4 [Gc]4 [FA]4 [EGc]12 | [FAc]12 [GB]12 | [EGc]8 [FA]4 [EA]4 [^FB]8 |[M:2/4] [E^GB]4 :: %8
 [EGB]4 |[M:4/4] [DB]4 [E^GB]4 | [Ec]4 [Gc]2 [FAc]2 | [DGc]2 [DB]2 [EGc]4 | [E^GB]4 [Ec]4 | %13
 [FAc]2 [FA]2 [EA]2 [E^G]2 |[M:3/2] [EA^c]12 | [EGB]12 | [Ad]4"^#" [EB]8 | [Ec]12 | [Ec]4 [^FB]8 | %19
 [E^G]12 | [Gd]12 | [EA]4 [Ad]4 [^FB]4 | [E^GB]8 [FAc]4 | [Fc]8 [FA]4 | [EA]8 [E^Ge]4 | [EA^c]12 |] %26
V:3
 z8 A,4 ^G,12 | A,4 ^G,4 A,4 ^F,12 | ^G,12 C8 B,4 | A,12 ^F,12 | ^G,4 E,4 D,4 C,12 | F,,12 G,,12 | %6
 C,8 D,4 A,,4 B,,8 |[M:2/4] E,4 :: E,4 |[M:4/4] F,4 E,4 | A,,4 C,2 F,,2 | G,,4 C,2 C2 | B,4 A,4 | %13
 F,2 D,2 E,4 |[M:3/2] A,12 | E,12 | ^F,4 G,8 | A,8 E,4 | A,,4 B,,8 | E,12 | B,,12 | %21
 ^C,4"^Notes: original keys: Ut 1st, Fa 4rth\n            editorial accidentals above the staff\n            dotted brackets indicate black notes" D,8 | %22
 E,8 A,,4 | F,8 D,4 | E,12 | A,,12 |] %26

